X: 38031
T: Spider Murphys Onions
R: reel
M: 4/4
K: Eminor
E2B2 B2AB cBA2 B4|E2B2 B2AB AFD2 D2EF|E2B2 B2AB cBA2 B2ef|g2fg fedB AGFD E4:|
B2e2 e2>f2 gagf e4|B2d2 d2>e2 fgfe d4|B2e2 e2>f2 gagf e2ef|g2fg fedB AGFD E4:|
EBeB EBeB EBeB E4|DAdA DAdA DAdA D4|EBeB EBeB EBeB E2 ef|g2fg fedB AGFD E4:|
egfg egfg egfg bagf|egfg egfg agfe d4|egfg egfg efga b2ef|g2fg fedB AGFD E4:|
geBe geBe geBe g2fe|fdAd fdAd fdAd f2ef|geBe geBe geBe g2ef|g2fg fedB AGFD E4:|
bgeg bgeg bgeg bgeg|afdf afdf afdf a2ga|bgeg bgeg bgeg b2ef|g2fg fedB AGFD E4:|
E2B2 B2>d2 e2b2 b4|D2A2 A2>B2 d2a2 a4|G2=c2 c2>e2 g2=c'2 c'2ef|g2fg fedB AGFD E4:|

